images-source/features/access.svg

<?xml version="1.0" encoding="UTF-8"?>
<svg width="50px" height="67px" viewBox="0 0 50 67" version="1.1" xmlns="http://www.w3.org/2000/svg" xmlns:xlink="http://www.w3.org/1999/xlink">
    <!-- Generator: Sketch 48.2 (47327) - http://www.bohemiancoding.com/sketch -->
    <title>access</title>
    <desc>Created with Sketch.</desc>
    <defs></defs>
    <g id="platform" stroke="none" stroke-width="1" fill="none" fill-rule="evenodd" transform="translate(-639.000000, -4956.000000)">
        <g id="Group-13-Copy" transform="translate(25.000000, 4782.000000)">
            <g id="Group-4" transform="translate(356.000000, 159.000000)">
                <g id="access" transform="translate(258.000000, 15.000000)">
                    <rect id="Rectangle-4" fill="#00AAE3" x="21" y="44" width="8" height="8"></rect>
                    <g id="padlock">
                        <rect id="Rectangle-5" fill="#FFFFFF" x="3" y="31" width="45" height="33" rx="3"></rect>
                        <path d="M46.2741047,28.9807163 L45.2961433,28.9807163 L45.2961433,20.3168044 C45.2961433,9.1184573 36.1914601,0 24.9793388,0 C13.7809917,0 4.66253444,9.1046832 4.66253444,20.3168044 C4.66253444,21.3498623 5.48898072,22.1763085 6.52203857,22.1763085 C7.55509642,22.1763085 8.3815427,21.3498623 8.3815427,20.3168044 C8.3815427,11.1707989 15.8195592,3.71900826 24.9793388,3.71900826 C34.1253444,3.71900826 41.577135,11.1570248 41.577135,20.3168044 L41.577135,28.9807163 L3.69834711,28.9807163 C1.71487603,28.9807163 0.103305785,30.5922865 0.103305785,32.5757576 L0.103305785,55.7300275 C0.103305785,61.6666667 4.93801653,66.5013774 10.8746556,66.5013774 L39.0977961,66.5013774 C45.0344353,66.5013774 49.869146,61.6666667 49.869146,55.7300275 L49.869146,32.5757576 C49.869146,30.5922865 48.2575758,28.9807163 46.2741047,28.9807163 Z M46.1501377,55.7300275 C46.1501377,59.6143251 42.9958678,62.7823691 39.0977961,62.7823691 L10.8884298,62.7823691 C7.00413223,62.7823691 3.83608815,59.6280992 3.83608815,55.7300275 L3.83608815,32.6997245 L46.1501377,32.6997245 L46.1501377,55.7300275 Z" id="Shape" fill="#000000" fill-rule="nonzero"></path>
                        <path d="M24.9931129,54.9724518 C28.8360882,54.9724518 31.9490358,51.84573 31.9490358,48.0165289 C31.9490358,44.1735537 28.822314,41.0606061 24.9931129,41.0606061 C21.1501377,41.0606061 18.0371901,44.1873278 18.0371901,48.0165289 C18.0371901,51.84573 21.1501377,54.9724518 24.9931129,54.9724518 Z M24.9931129,44.7658402 C26.7837466,44.7658402 28.2300275,46.2258953 28.2300275,48.0027548 C28.2300275,49.7796143 26.7837466,51.2534435 24.9931129,51.2534435 C23.2024793,51.2534435 21.7561983,49.7933884 21.7561983,48.0165289 C21.7561983,46.2396694 23.2024793,44.7658402 24.9931129,44.7658402 Z" id="Shape" fill="#FFAF1D" fill-rule="nonzero"></path>
                    </g>
                </g>
            </g>
        </g>
    </g>
</svg>

<svg width="50" height="67" viewBox="0 0 50 67" xmlns="http://www.w3.org/2000/svg"><title>access</title><g fill="none" fill-rule="evenodd"><path fill="#00AAE3" d="M21 44h8v8h-8z"/><g><rect fill="#FFF" x="3" y="31" width="45" height="33" rx="3"/><path d="M46.274 28.98h-.978v-8.663C45.296 9.118 36.191 0 24.98 0 13.781 0 4.663 9.105 4.663 20.317c0 1.033.826 1.86 1.859 1.86s1.86-.827 1.86-1.86c0-9.146 7.438-16.598 16.597-16.598 9.146 0 16.598 7.438 16.598 16.598v8.664H3.698a3.598 3.598 0 0 0-3.595 3.595V55.73c0 5.937 4.835 10.771 10.772 10.771h28.223c5.936 0 10.771-4.834 10.771-10.771V32.576a3.598 3.598 0 0 0-3.595-3.595zm-.124 26.75a7.057 7.057 0 0 1-7.052 7.052h-28.21a7.057 7.057 0 0 1-7.052-7.052V32.7H46.15v23.03z" fill="#000" fill-rule="nonzero"/><path d="M24.993 54.972c3.843 0 6.956-3.126 6.956-6.955 0-3.843-3.127-6.956-6.956-6.956-3.843 0-6.956 3.126-6.956 6.956 0 3.829 3.113 6.955 6.956 6.955zm0-10.206c1.79 0 3.237 1.46 3.237 3.237 0 1.777-1.446 3.25-3.237 3.25a3.242 3.242 0 0 1-3.237-3.236c0-1.777 1.446-3.251 3.237-3.251z" fill="#FFAF1D" fill-rule="nonzero"/></g></g></svg>
